X:45
T:score137
L:1/8
Q:1/4=96
M:6/8
I:linebreak $
K:G
!p! .D .D.G.A | (!>!BG).E .E.A.B | (!>!cA).e .d.c.B | .A.G.A (_B.A).G |$ (F.D).D .D.G.A | %5
 (!>!BG).E .E.A.B | (!>!cA).e .d.c.B | .A.G.A (D.G).F |$ G2 z z2 z |] %9
